X: 30125
T: Old Boreen, The
R: barndance
M: 4/4
K: Gmajor
D|:G3A B3A|GAGE D3E|GABd edgd|eege edBA|
G3A B3A|GAGE D3E|GABd edBG|1 ~A2G2 G2BA:|2 ~A2G2 GABc||
d3e dBGB|d^cde dBGB|A3B AGEG|AGAB AGED|
d3e dBGB|d^cde dBGD|GABd edBG|1 ~A2G2 GABc:|2 ~A2G2 G3D||

